!!!COM: Anon.
!!!OTL: Acorda, o/ minha ma~e
!!!OTL: Romanceiro Folclorico do Brasil
!!!CNT: Brasil
!!!OCY: Brasil
!!!ODT: <1971///
!!!PSR: Irmaos Vitale
!!!PSP: Sao Paulo, Brasil
!!!PDT: 1949///
!!!PPE: Rossini Tavares de Lima
!!!PPG: pages 53-54
!! Romance: Cego Ou Ceguinho
!! Place: Bandeirantes, Sao Paulo, Brasil
**kern
*clefG2
*k[b-e-a-]
*M3/4
*MM100
=1-
4.d
8e-
8f
8g
=
4a-
4.dd
8cc
=
4ee-
4.dd
8b-
=
4cc
4a-
4g
=
4g
4g
8b-
8a-
=
4a-
4.g
8d
=
4g
4.d
8e-
=
4d
2c
==
*-
